src/images/footer-inst.svg

<svg width="30" height="30" viewBox="0 0 30 30" fill="none" xmlns="http://www.w3.org/2000/svg">
<g clip-path="url(#clip0_219_920)">
<path fill-rule="evenodd" clip-rule="evenodd" d="M15.1191 0.183472C7.11101 0.183472 0.619141 6.67534 0.619141 14.6835C0.619141 22.6916 7.11101 29.1835 15.1191 29.1835C23.1273 29.1835 29.6191 22.6916 29.6191 14.6835C29.6191 6.67534 23.1273 0.183472 15.1191 0.183472ZM11.9311 6.99686C12.756 6.95932 13.0196 6.95014 15.1199 6.95014H15.1174C17.2184 6.95014 17.481 6.95932 18.3059 6.99686C19.1292 7.03456 19.6914 7.1649 20.1844 7.35614C20.6936 7.55351 21.1237 7.81773 21.5539 8.2479C21.9841 8.67775 22.2483 9.10921 22.4465 9.61784C22.6366 10.1096 22.7671 10.6715 22.8058 11.4948C22.8428 12.3197 22.8525 12.5833 22.8525 14.6836C22.8525 16.7838 22.8428 17.0468 22.8058 17.8717C22.7671 18.6946 22.6366 19.2567 22.4465 19.7486C22.2483 20.2571 21.9841 20.6885 21.5539 21.1184C21.1242 21.5486 20.6934 21.8134 20.1849 22.011C19.6929 22.2022 19.1303 22.3325 18.307 22.3702C17.4821 22.4078 17.2193 22.417 15.1189 22.417C13.0188 22.417 12.7554 22.4078 11.9305 22.3702C11.1074 22.3325 10.5452 22.2022 10.0532 22.011C9.54488 21.8134 9.11342 21.5486 8.68373 21.1184C8.25372 20.6885 7.9895 20.2571 7.79181 19.7485C7.60073 19.2567 7.47039 18.6948 7.43253 17.8715C7.39515 17.0466 7.38581 16.7838 7.38581 14.6836C7.38581 12.5833 7.39547 12.3195 7.43237 11.4946C7.46942 10.6717 7.59993 10.1096 7.79165 9.61768C7.98982 9.10921 8.25404 8.67775 8.68422 8.2479C9.11406 7.81789 9.54552 7.55367 10.0542 7.35614C10.5459 7.1649 11.1078 7.03456 11.9311 6.99686Z" fill="#014C69"/>
<path fill-rule="evenodd" clip-rule="evenodd" d="M14.4253 8.34373C14.56 8.34352 14.705 8.34358 14.8613 8.34365L15.1191 8.34373C17.1839 8.34373 17.4286 8.35114 18.244 8.3882C18.998 8.42268 19.4073 8.54867 19.6799 8.65452C20.0408 8.79468 20.2981 8.96224 20.5686 9.23291C20.8392 9.50358 21.0068 9.76136 21.1473 10.1223C21.2531 10.3945 21.3793 10.8038 21.4136 11.5578C21.4507 12.373 21.4587 12.6179 21.4587 14.6817C21.4587 16.7456 21.4507 16.9905 21.4136 17.8057C21.3791 18.5597 21.2531 18.969 21.1473 19.2412C21.0071 19.6021 20.8392 19.8591 20.5686 20.1296C20.2979 20.4003 20.0409 20.5678 19.6799 20.708C19.4076 20.8143 18.998 20.94 18.244 20.9745C17.4288 21.0115 17.1839 21.0196 15.1191 21.0196C13.0541 21.0196 12.8094 21.0115 11.9941 20.9745C11.2401 20.9397 10.8309 20.8137 10.5581 20.7078C10.1973 20.5677 9.93947 20.4001 9.6688 20.1295C9.39813 19.8588 9.23057 19.6016 9.09008 19.2406C8.98423 18.9683 8.85808 18.5591 8.82376 17.8051C8.78671 16.9898 8.7793 16.745 8.7793 14.6798C8.7793 12.6147 8.78671 12.3711 8.82376 11.5558C8.85824 10.8018 8.98423 10.3926 9.09008 10.12C9.23025 9.75911 9.39813 9.50133 9.6688 9.23066C9.93947 8.95999 10.1973 8.79243 10.5581 8.65194C10.8307 8.5456 11.2401 8.41994 11.9941 8.3853C12.7075 8.35307 12.984 8.34341 14.4253 8.3418V8.34373ZM19.2471 9.6278C18.7348 9.6278 18.3191 10.043 18.3191 10.5555C18.3191 11.0678 18.7348 11.4835 19.2471 11.4835C19.7595 11.4835 20.1751 11.0678 20.1751 10.5555C20.1751 10.0431 19.7595 9.62748 19.2471 9.62748V9.6278ZM11.1477 14.6835C11.1477 12.4903 12.9258 10.7122 15.1189 10.7121C17.3122 10.7121 19.0899 12.4903 19.0899 14.6835C19.0899 16.8767 17.3123 18.6541 15.1191 18.6541C12.9259 18.6541 11.1477 16.8767 11.1477 14.6835Z" fill="#014C69"/>
<path d="M15.1208 12.1057C16.5444 12.1057 17.6986 13.2598 17.6986 14.6835C17.6986 16.1071 16.5444 17.2613 15.1208 17.2613C13.697 17.2613 12.543 16.1071 12.543 14.6835C12.543 13.2598 13.697 12.1057 15.1208 12.1057Z" fill="#014C69"/>
</g>
<defs>
<clipPath id="clip0_219_920">
<rect width="29" height="29" fill="white" transform="translate(0.619141 0.183472)"/>
</clipPath>
</defs>
</svg>

<svg xmlns="http://www.w3.org/2000/svg" width="30" height="30" fill="none"><g fill="#014C69" clip-path="url(#a)"><path fill-rule="evenodd" d="M15.12.183C7.11.183.62 6.675.62 14.683c0 8.009 6.491 14.5 14.5 14.5 8.007 0 14.5-6.491 14.5-14.5 0-8.008-6.493-14.5-14.5-14.5ZM11.93 6.997c.825-.038 1.089-.047 3.189-.047h-.003c2.101 0 2.364.01 3.189.047.823.038 1.385.168 1.878.36.51.197.94.46 1.37.89.43.43.694.862.893 1.37.19.493.32 1.054.359 1.878.037.825.046 1.088.046 3.189 0 2.1-.01 2.363-.046 3.188-.039.823-.17 1.385-.36 1.877-.198.508-.462.94-.892 1.37-.43.43-.86.694-1.37.892-.491.191-1.054.322-1.877.36-.825.037-1.088.046-3.188.046s-2.364-.01-3.188-.047c-.824-.038-1.386-.168-1.878-.359a3.787 3.787 0 0 1-1.37-.893 3.79 3.79 0 0 1-.891-1.37c-.191-.491-.322-1.053-.36-1.877-.037-.824-.046-1.087-.046-3.187 0-2.1.01-2.364.046-3.19.037-.822.168-1.384.36-1.876.198-.509.462-.94.892-1.37.43-.43.862-.694 1.37-.892.492-.191 1.054-.321 1.877-.36Z" clip-rule="evenodd"/><path fill-rule="evenodd" d="M14.425 8.344h.694c2.065 0 2.31.007 3.125.044.754.035 1.163.16 1.436.267.36.14.618.307.889.578.27.27.438.528.578.89.106.272.232.68.267 1.435.037.815.045 1.06.045 3.124s-.008 2.309-.045 3.124c-.035.754-.16 1.163-.267 1.435-.14.361-.308.618-.578.889-.271.27-.528.438-.89.578-.271.106-.681.232-1.435.267-.815.037-1.06.045-3.125.045s-2.31-.008-3.125-.046c-.754-.034-1.163-.16-1.436-.266a2.396 2.396 0 0 1-.89-.578 2.398 2.398 0 0 1-.578-.89c-.106-.272-.232-.68-.266-1.435-.037-.815-.045-1.06-.045-3.125s.008-2.309.045-3.124c.034-.754.16-1.163.266-1.436.14-.36.308-.619.579-.89a2.4 2.4 0 0 1 .89-.578c.272-.106.681-.232 1.435-.267.713-.032.99-.042 2.431-.043v.002Zm4.822 1.284a.928.928 0 1 0 0 1.856.928.928 0 0 0 0-1.857Zm-8.1 5.056a3.972 3.972 0 1 1 7.944 0 3.972 3.972 0 0 1-7.943 0Z" clip-rule="evenodd"/><path d="M15.12 12.106a2.578 2.578 0 1 1 0 5.155 2.578 2.578 0 0 1 0-5.155Z"/></g><defs><clipPath id="a"><path fill="#fff" d="M.62.183h29v29h-29z"/></clipPath></defs></svg>
